src/images/arrow-right.svg

<svg fill="none" height="23" viewBox="0 0 15 23" width="15" xmlns="http://www.w3.org/2000/svg"><path d="m13.4375 10.0391-10.17724-9.515417c-.27745-.259412-.64047-.407964-1.02019-.417474-1.445024-.0361961-2.1492592 1.750051-1.06832 2.709721l8.09678 7.18847c.89627.7957.89627 2.1955 0 2.9912l-8.09678 7.1885c-1.0809393.9596-.376704 2.7459 1.06832 2.7097.37972-.0095.74274-.1581 1.02019-.4175l10.17724-9.5154c.8454-.7905.8454-2.1313 0-2.9218z" fill="#fc732c"/></svg>

<svg width="15" height="23" viewBox="0 0 15 23" fill="none" xmlns="http://www.w3.org/2000/svg">
<path d="M13.4375 10.0391L3.26026 0.523683C2.98281 0.264271 2.61979 0.115719 2.24007 0.106209C0.795046 0.0700129 0.0908108 1.85626 1.17175 2.81593L9.26853 10.0044C10.1648 10.8001 10.1648 12.1999 9.26853 12.9956L1.17175 20.1841C0.0908107 21.1437 0.795046 22.93 2.24007 22.8938C2.61979 22.8843 2.98281 22.7357 3.26026 22.4763L13.4375 12.9609C14.2829 12.1704 14.2829 10.8296 13.4375 10.0391Z" fill="#FC732C"/>
</svg>
